X:1
T:Title
%%score 1 2 3 4
L:1/8
Q:1/4=120
M:4/4
K:C
V:1 treble nm="Grand Piano"
V:2 treble nm="Grand Piano"
V:3 treble nm="Grand Piano, Melody"
V:4 treble nm="Grand Piano"
V:1
 G8 | c2 c2 c2 e2 | d2 dc B2 B2 | c2 cB A2 G2 | G8- | G4 c2 cB | c2 e2 d2 gf | e3 d c3 A | %8
 G>A GF E2 G2 | e2 d2 c2 B2 | c6 z2 | z8 | z8 | z4 z2 c2 | e2 e2 e2 c2 | d2 d2 d2 d2 | %16
 c2 c2 Bc d2 | e4 e2 dc | BA G2 c4- | c2 e2 fedc | B2 d2 c2 cc | c2 c2 e4- | e2 c2 d4- | d4 e2 ec | %24
 d2 d2 gfed | c6 c2 | c2 e2 A2 G2 | c6 z2 | z8 | z8 | z4 z2 C2 | E2 E2 E2 C2 | D2 D2 D2 D2 | %33
 C2 C2 B,C D2 | E4 E2 DC | B,A, G,2 C4- | C2[K:treble] E2 FEDC | B,2 D2 C2 CC | C2 C2 E4- | %39
 E2 C2 D4- | D4 E2 EC | D2 D2 GFED | C6 C2 | C2 E2 A,2 G,2 | C8 |] %45
V:2
 E8 | G2 G2 G2 A2 | G2 GF E2 E2 | EF G2 F2 D2 | E8- | E4 E2 EF | G2 A2 G>A GF | E8 | G6 E2 | %9
 A2 A2 A2 G2 | E6 z2 | z8 | z4 z2 G2 | c2 c2 c2 c2 | A6 A2 | G6 G2 | E2 A2 G2 G2 | G4 z4 | %18
 z4 c2 cB | A2 A2 G4- | G4 E2 EF | G2 GA E4- | E2 A2 G4- | G4 E2 EF | G2 G2 cAGA | E6 E2 | %26
 G2 E2 A2 G2 | G6 z2 | z8 | z4 z2 G2 | c2 c2 c2 c2 | A6 A2 | G6 G2 | E2 A2 G2 G2 | G4 z4 | %35
 z4 c2 cB | A2 A2 G4- | G4 E2 EF | G2 GA E4- | E2 A2 G4- | G4 E2 EF | G2 G2 cAGA | E6 E2 | %43
 G2 E2 A2 G2 | G8 |] %45
V:3
 C8 | E2 E2 E2 C2 | DC[K:bass]B,A, G,2 G,2 | C2 G,2 A,2 B,2 | C8- | C4 C2 CB, | C2 C2 G,2 CD | %7
 E>F ED C>D CE | D6 D2 | C2 F2 E2 D2 | C6 z2 | z4 z2 C2 | E2 E2 G2 G2 | E2 E2 C2 C2 | C2 C2 C2 E2 | %15
 D2 D2 D2 D2 | C2 F2 E2 D2 | C4 z4 | z8 | z4 G2 GF | E2 D2 C4- | C2[K:bass] A,2 G,E, G,2 | %22
 C2[K:treble] E2 D4- | D4 C2 B,[K:bass]A, | G,2 G,2 CD[K:treble]EF | G6 G2 | E2 G2 FE D2 | C6 z2 | %28
 z4 z2 C2 | E2 E2 G2 G2 | E2 E2 C2 C2 | C2 C2 C2 E2 | D2 D2 D2 D2 | C2 F2 E2 D2 | C4 z4 | z8 | %36
 z4 G2 GF | E2 D2 C4- | C2[K:bass] A,2 G,E, G,2 | C2[K:treble] E2 D4- | D4 C2 B,[K:bass]A, | %41
 G,2 G,2 CD[K:treble]EF | G6 G2 | E2 G2 FE D2 | C8 |] %45
V:4
 C8 | C2 C2 C2 A,2 | G,2 E,2 E,2 E,2 | F,2 E,2 D,2 G,2 | C,8- | C,4 C,2 C,D, | E,2 C,2 G,2 G,2 | %7
 A,>G, A,B, C4 | G,6 F,2 | A,2 F,2 E,F, G,2 | C,6 C,2 | G,2 G,2[K:treble] C2 C2 | %12
 A,2 C2 G,2[K:bass] G,2 | A,2 A,2 G,2 E,2 | C,6 C,2 | G,6 G,2 | A,2 F,2 G,2 G,2 | E,4 z4 | z8 | %19
 z8 | z4 [C,C]2 [C,C][B,,B,] | [A,,A,]2 [G,,G,]2 [C,C]4- | [C,C]2 [C,C]2 [G,,G,]4- | %23
 [G,,G,]4 A,2 G,F, | G,2 G,2 [C,C]2 [C,C]2 | [C,C]6 [C,C]2 | [C,C]2 [C,C]2 F,2 G,2 | C,6 C,2 | %28
 G,2 G,2[K:treble] C2 C2 | A,2 C2 G,2[K:bass] G,2 | A,2 A,2 G,2 E,2 | C,6 C,2 | G,6 G,2 | %33
 A,2 F,2 G,2 G,2 | E,4 z4 | z8 | z8 | z4 [C,C]2 [C,C][B,,B,] | [A,,A,]2 [G,,G,]2 [C,C]4- | %39
 [C,C]2 [C,C]2 [G,,G,]4- | [G,,G,]4 A,2 G,F, | G,2 G,2 [C,C]2 [C,C]2 | [C,C]6 [C,C]2 | %43
 [C,C]2 [C,C]2 F,2 G,2 | C,8 |] %45

